X:1
T:Allemaigne 1
T:Allemaigne 1
T:Tielman Susato
C:Tielman Susato
%%score 1 2 3 4
L:1/8
M:4/4
K:C
V:1 treble 
V:2 treble 
V:3 treble 
V:4 treble 
V:1
 CB,CD C2 D2 | E4 E2 G2 | F4 E4 | D4 C4 | DCDE F2 D2 | E4 E4 :: EDEF E2 F2 | G4 F2 E2 | %8
 DCDE F2 D2 | E4 E4 :: E3 F EDCB, | A,4 G,4 | C2 D2 E2 C2 | D4 D2 C2 | B,CDC B,A,CB, | C4 C4 :| %16
V:2
 G,4 B,2 x2 | C4 C2 D2 | D4 C4 | B,4 A,4 | B,3 C D2 A,2 | C4 C4 :: C4 C2 A,2 | C2 B2 A,2 C2 | %8
 D2 G,2 A,3 B, | C4 C4 :: C4 C4 | C4 C2 G,2 | A,2 B,2 C4 | _B,4 B,2 F,2 | G,2 A,2 G,4 | E,4 E,4 :| %16
V:3
 C,4 E,2 F,2 | G,4 G,2 _B,2 | _B,4 G,4 | G,3 F, E,2 C,2 | G,4 A,2 F,2 | G,4 G,4 :: G,4 G,2 F,2 | %7
 E,2 D,2 F,2 G,2 | _B,4 A,2 F,2 | G,4 G,4 :: G,4 G,2 E,2 | F,4 E,4 | E,2 F,2 G,2 A,2 | %13
 F,4 G,2 C,2 | D,E,F,E, D,C, D,2 | C,4 C,4 :| %16
V:4
 C,4 A,,2 D,2 | C,4 C,2 G,,2 | _B,,4 C,4 | G,,4 A,,4 | G,,4 D,2 D,2 | C,4 C,4 :: C,4 C,2 D,2 | %7
 C,2 G,,2 D,2 C,2 | G,,4 D,2 D,2 | C,4 C,4 :: C,4 C,2 C,2 | F,,4 C,3 B,, | A,2 D,2 C,2 A,,2 | %13
 _B,,4 G,,2 A,,2 | G,,2 F,,2 G,,4 | C,4 C,4 :| %16

